X:1
T:Title
%%score { 1 | 2 }
L:1/8
M:6/8
K:Bb
V:1 treble nm="Grand Piano"
V:2 bass 
V:1
 z3 z2[Q:1/4=87] [DF]/[DB]/ | d2 e d2 c | [DB]3 [DF]2 [DB]/[Ec]/ | [Fd] [Fd]2 [=Ec]2 [EG] | %4
 c3 z2 B/c/ | [Fd]2 [Ge] [^Fd]2 [Fc] | B3 G2 B/c/ | d B2 [CA]2 [Ec] | [DB]3 z3 | d2 e c2 d | %10
[M:5/8] [DB]3 [DF]2 |[M:1/8] [DB] |[M:3/4] [Fd]2 [Fd] [=Ec]2 [EG] | c4 z2 | d2 e c2 d | %15
[M:7/8] B3 [Ge]3 B |[M:3/4] d d2 c2 F |[M:5/8] [DB]3 z2 |] %18
V:2
 z3 z2 [B,,F,]/[B,,F,]/ | [B,F]2 [B,G][K:bass] [F,B,F]2 [F,E] | %2
 [B,,F,]3 [B,,B,]2 [B,,F,]/[B,,F,]/ | [B,,B,] [B,,B,]2 [C,G,]2 [C,B,] | [F,A,E]3 z2 [F,D]/[F,E]/ | %5
 [B,,B,]2 [B,,B,] [D,A,]2 [D,D] | [G,DG]3 [E,B,E]2 [E,G,E]/[G,E]/ | %7
 [F,B,F] [F,D]2 [F,,F,]2 [F,,F,] | [B,,F,]3 z3 | [B,F]2 [B,G][K:bass] [F,A,E]2 [F,F] | %10
[M:5/8] [B,,F,]3 [B,,B,]2 |[M:1/8] [B,,F,] |[M:3/4] [B,,B,]2 [B,,B,] [C,G,]2 [C,B,] | [F,A,E]4 z2 | %14
 [B,F]2 [B,G][K:bass] [F,A,E]2 [F,F] |[M:7/8] [B,D]3 [E,B,]3 [G,E] | %16
[M:3/4] [F,B,F] [F,B,F]2 [F,A,E]2 [F,E] |[M:5/8] [B,,F,]3 z2 |] %18

